docs/themes/v2/source/images/new/foot3.svg

<svg fill="none" height="21" viewBox="0 0 20 21" width="20" xmlns="http://www.w3.org/2000/svg"><path clip-rule="evenodd" d="m5.26323 2.6316c0 1.16273.9425 2.10523 2.10523 2.10523h2.10523v-2.10523c0-1.16273-.9425-2.105233-2.10523-2.105233s-2.10523.942503-2.10523 2.105233zm4.21046 5.26318c0-1.16273-.9425-2.10523-2.10523-2.10523h-5.26323c-1.16273 0-2.10523.9425-2.10523 2.10523s.9425 2.10522 2.10523 2.10522h5.26323c1.16273 0 2.10523-.94249 2.10523-2.10522zm-5.26323 5.26062c0 1.1626-.9425 2.1051-2.10523 2.1051s-2.10523-.9425-2.10523-2.1051c0-1.1629.9425-2.1054 2.10523-2.1054h2.10523zm10.52634-5.26057c0 1.16273-.9425 2.10527-2.1053 2.10527-1.1627 0-2.1052-.94254-2.1052-2.10527v-5.26323c0-1.16273.9425-2.105233 2.1052-2.105233 1.1628 0 2.1053.942503 2.1053 2.105233zm1.0526-.00005c0-1.16273.9426-2.10523 2.1054-2.10523 1.1627 0 2.1052.9425 2.1052 2.10523s-.9425 2.10522-2.1052 2.10522h-2.1054zm-10.52617 5.26062c0-1.1629.9425-2.1054 2.10523-2.1054s2.10523.9425 2.10523 2.1054v5.2631c0 1.1626-.9425 2.1052-2.10523 2.1052s-2.10523-.9426-2.10523-2.1052zm7.36827 2.1078c-1.1627 0-2.1052-.9425-2.1052-2.1051 0-1.1629.9425-2.1054 2.1052-2.1054h5.2633c1.1627 0 2.1052.9425 2.1052 2.1054 0 1.1626-.9425 2.1051-2.1052 2.1051zm0 1.0525c1.1628 0 2.1053.9426 2.1053 2.1054 0 1.1625-.9425 2.1052-2.1053 2.1052-1.1627 0-2.1052-.9427-2.1052-2.1052v-2.1054z" fill="#000" fill-opacity=".4" fill-rule="evenodd"/></svg>

<svg width="20" height="21" viewBox="0 0 20 21" fill="none" xmlns="http://www.w3.org/2000/svg">
<path fill-rule="evenodd" clip-rule="evenodd" d="M5.26323 2.6316C5.26323 3.79433 6.20573 4.73683 7.36846 4.73683H9.47369V2.6316C9.47369 1.46887 8.53119 0.526367 7.36846 0.526367C6.20573 0.526367 5.26323 1.46887 5.26323 2.6316ZM9.47369 7.89478C9.47369 6.73205 8.53119 5.78955 7.36846 5.78955H2.10523C0.9425 5.78955 0 6.73205 0 7.89478C0 9.05751 0.9425 10 2.10523 10H7.36846C8.53119 10 9.47369 9.05751 9.47369 7.89478ZM4.21046 13.1554C4.21046 14.318 3.26796 15.2605 2.10523 15.2605C0.9425 15.2605 0 14.318 0 13.1554C0 11.9925 0.9425 11.05 2.10523 11.05H4.21046V13.1554ZM14.7368 7.89483C14.7368 9.05756 13.7943 10.0001 12.6315 10.0001C11.4688 10.0001 10.5263 9.05756 10.5263 7.89483V2.6316C10.5263 1.46887 11.4688 0.526367 12.6315 0.526367C13.7943 0.526367 14.7368 1.46887 14.7368 2.6316V7.89483ZM15.7894 7.89478C15.7894 6.73205 16.732 5.78955 17.8948 5.78955C19.0575 5.78955 20 6.73205 20 7.89478C20 9.05751 19.0575 10 17.8948 10H15.7894V7.89478ZM5.26323 13.1554C5.26323 11.9925 6.20573 11.05 7.36846 11.05C8.53119 11.05 9.47369 11.9925 9.47369 13.1554V18.4185C9.47369 19.5811 8.53119 20.5237 7.36846 20.5237C6.20573 20.5237 5.26323 19.5811 5.26323 18.4185V13.1554ZM12.6315 15.2632C11.4688 15.2632 10.5263 14.3207 10.5263 13.1581C10.5263 11.9952 11.4688 11.0527 12.6315 11.0527H17.8948C19.0575 11.0527 20 11.9952 20 13.1581C20 14.3207 19.0575 15.2632 17.8948 15.2632H12.6315ZM12.6315 16.3157C13.7943 16.3157 14.7368 17.2583 14.7368 18.4211C14.7368 19.5836 13.7943 20.5263 12.6315 20.5263C11.4688 20.5263 10.5263 19.5836 10.5263 18.4211V16.3157H12.6315Z" fill="black" fill-opacity="0.4"/>
</svg>
